icon-themes/breeze_svg/cmd/lc_grow.svg

<svg viewBox="0 0 24 24" xmlns="http://www.w3.org/2000/svg"><path d="m8.9101562 5-3.3144531 9.59375-.1230469.40625-1.4726562 4h1.6582031l1.625-4.4375h5.4335939l1.625 4.4375h1.658203l-1.472656-4-.123047-.40625-3.314453-9.59375h-.214844-1.75zm1.1054688 1.9375 2.179687 6.34375h-4.3906245z" fill="#4d4d4d"/><path d="m16.5 3-.21875.21875-3.28125 3.28125.71875.71875 2.28125-2.3125v4.3125h1v-4.3125l2.28125 2.3125.71875-.71875-3.28125-3.28125z" fill="#1d99f3"/></svg>

<svg xmlns="http://www.w3.org/2000/svg" viewBox="0 0 24 24">
 <path 
     style="fill:#4d4d4d" 
     d="M 8.9101562 5 L 5.5957031 14.59375 L 5.4726562 15 L 4 19 L 5.6582031 19 L 7.2832031 14.5625 L 12.716797 14.5625 L 14.341797 19 L 16 19 L 14.527344 15 L 14.404297 14.59375 L 11.089844 5 L 10.875 5 L 9.125 5 L 8.9101562 5 z M 10.015625 6.9375 L 12.195312 13.28125 L 7.8046875 13.28125 L 10.015625 6.9375 z "
     />
 <path 
     style="fill:#1d99f3" 
     d="M 16.5 3 L 16.28125 3.21875 L 13 6.5 L 13.71875 7.21875 L 16 4.90625 L 16 9.21875 L 17 9.21875 L 17 4.90625 L 19.28125 7.21875 L 20 6.5 L 16.71875 3.21875 L 16.5 3 z "
     />
 </svg>
